flaticon/symbols/friendship.svg

<svg xmlns="http://www.w3.org/2000/svg" width="32" height="32" viewBox="0 0 24 24">
    <path d="M 16.5 0 C 14.855469 0 13.203125 1.039062 11.902344 2.875 C 10.582031 0.96875 9.101562 0 7.5 0 C 3.507812 0 0.5 5.160156 0.5 12 C 0.5 18.839844 3.507812 24 7.5 24 C 9.101562 24 10.582031 23.03125 11.902344 21.125 C 13.203125 22.960938 14.855469 24 16.5 24 C 20.492188 24 23.5 18.839844 23.5 12 C 23.5 5.160156 20.492188 0 16.5 0 Z M 16.5 23.199219 C 15.003906 23.199219 13.464844 22.121094 12.273438 20.242188 C 12.191406 20.113281 12.054688 20.035156 11.898438 20.035156 C 11.746094 20.035156 11.609375 20.113281 11.527344 20.242188 C 10.289062 22.207031 8.933594 23.199219 7.5 23.199219 C 3.964844 23.199219 1.300781 18.386719 1.300781 12 C 1.300781 5.613281 3.964844 0.800781 7.5 0.800781 C 8.933594 0.800781 10.289062 1.792969 11.527344 3.757812 C 11.6875 4.015625 12.113281 4.015625 12.273438 3.757812 C 13.464844 1.878906 15.003906 0.800781 16.5 0.800781 C 20.035156 0.800781 22.699219 5.613281 22.699219 12 C 22.699219 18.386719 20.035156 23.199219 16.5 23.199219 Z M 16.5 23.199219"/>
    <path d="M 16.5 1.601562 C 14.621094 1.601562 12.894531 3.355469 11.90625 6.171875 C 10.929688 3.28125 9.335938 1.601562 7.5 1.601562 C 4.472656 1.601562 2.101562 6.167969 2.101562 12 C 2.101562 17.832031 4.472656 22.398438 7.5 22.398438 C 9.335938 22.398438 10.929688 20.71875 11.90625 17.828125 C 12.894531 20.644531 14.621094 22.398438 16.5 22.398438 C 19.527344 22.398438 21.898438 17.832031 21.898438 12 C 21.898438 6.167969 19.527344 1.601562 16.5 1.601562 Z M 11.5 11.601562 L 9.460938 11.601562 C 9.273438 10.6875 8.464844 10 7.5 10 C 6.398438 10 5.5 10.898438 5.5 12 C 5.5 13.101562 6.398438 14 7.5 14 C 8.464844 14 9.273438 13.3125 9.460938 12.398438 L 11.5 12.398438 L 11.5 16 L 9.460938 16 C 9.273438 15.089844 8.464844 14.398438 7.5 14.398438 C 6.398438 14.398438 5.5 15.296875 5.5 16.398438 C 5.5 17.503906 6.398438 18.398438 7.5 18.398438 C 8.464844 18.398438 9.273438 17.710938 9.460938 16.800781 L 11.382812 16.800781 C 10.558594 19.773438 9.09375 21.601562 7.5 21.601562 C 5.007812 21.601562 2.898438 17.203125 2.898438 12 C 2.898438 6.796875 5.007812 2.398438 7.5 2.398438 C 9.09375 2.398438 10.558594 4.226562 11.382812 7.199219 L 9.460938 7.199219 C 9.273438 6.289062 8.464844 5.601562 7.5 5.601562 C 6.398438 5.601562 5.5 6.496094 5.5 7.601562 C 5.5 8.703125 6.398438 9.601562 7.5 9.601562 C 8.464844 9.601562 9.273438 8.910156 9.460938 8 L 11.5 8 C 11.5 8 11.5 11.601562 11.5 11.601562 Z M 8.699219 12 C 8.699219 12.660156 8.160156 13.199219 7.5 13.199219 C 6.839844 13.199219 6.300781 12.660156 6.300781 12 C 6.300781 11.339844 6.839844 10.800781 7.5 10.800781 C 8.160156 10.800781 8.699219 11.339844 8.699219 12 Z M 8.699219 16.398438 C 8.699219 17.0625 8.160156 17.601562 7.5 17.601562 C 6.839844 17.601562 6.300781 17.0625 6.300781 16.398438 C 6.300781 15.738281 6.839844 15.199219 7.5 15.199219 C 8.160156 15.199219 8.699219 15.738281 8.699219 16.398438 Z M 8.699219 7.601562 C 8.699219 8.261719 8.160156 8.800781 7.5 8.800781 C 6.839844 8.800781 6.300781 8.261719 6.300781 7.601562 C 6.300781 6.9375 6.839844 6.398438 7.5 6.398438 C 8.160156 6.398438 8.699219 6.9375 8.699219 7.601562 Z M 16.5 21.601562 C 14.84375 21.601562 13.238281 19.691406 12.421875 16.800781 L 14.339844 16.800781 C 14.527344 17.710938 15.335938 18.398438 16.300781 18.398438 C 17.402344 18.398438 18.300781 17.503906 18.300781 16.398438 C 18.300781 15.296875 17.402344 14.398438 16.300781 14.398438 C 15.335938 14.398438 14.527344 15.089844 14.339844 16 L 12.300781 16 L 12.300781 12.398438 L 14.339844 12.398438 C 14.527344 13.3125 15.335938 14 16.300781 14 C 17.402344 14 18.300781 13.101562 18.300781 12 C 18.300781 10.898438 17.402344 10 16.300781 10 C 15.335938 10 14.527344 10.6875 14.339844 11.601562 L 12.300781 11.601562 L 12.300781 8 L 14.339844 8 C 14.527344 8.910156 15.335938 9.601562 16.300781 9.601562 C 17.402344 9.601562 18.300781 8.703125 18.300781 7.601562 C 18.300781 6.496094 17.402344 5.601562 16.300781 5.601562 C 15.335938 5.601562 14.527344 6.289062 14.339844 7.199219 L 12.421875 7.199219 C 13.238281 4.308594 14.84375 2.398438 16.5 2.398438 C 18.992188 2.398438 21.101562 6.796875 21.101562 12 C 21.101562 17.203125 18.992188 21.601562 16.5 21.601562 Z M 15.101562 16.398438 C 15.101562 15.738281 15.636719 15.199219 16.300781 15.199219 C 16.960938 15.199219 17.5 15.738281 17.5 16.398438 C 17.5 17.0625 16.960938 17.601562 16.300781 17.601562 C 15.636719 17.601562 15.101562 17.0625 15.101562 16.398438 Z M 15.101562 12 C 15.101562 11.339844 15.636719 10.800781 16.300781 10.800781 C 16.960938 10.800781 17.5 11.339844 17.5 12 C 17.5 12.660156 16.960938 13.199219 16.300781 13.199219 C 15.636719 13.199219 15.101562 12.660156 15.101562 12 Z M 15.101562 7.601562 C 15.101562 6.9375 15.636719 6.398438 16.300781 6.398438 C 16.960938 6.398438 17.5 6.9375 17.5 7.601562 C 17.5 8.261719 16.960938 8.800781 16.300781 8.800781 C 15.636719 8.800781 15.101562 8.261719 15.101562 7.601562 Z M 15.101562 7.601562"/>
</svg>

<svg xmlns="http://www.w3.org/2000/svg" width="32" height="32" viewBox="0 0 24 24">
    <path d="M16.5 0c-1.645 0-3.297 1.04-4.598 2.875C10.582.969 9.102 0 7.5 0c-3.992 0-7 5.16-7 12s3.008 12 7 12c1.602 0 3.082-.969 4.402-2.875C13.203 22.961 14.855 24 16.5 24c3.992 0 7-5.16 7-12s-3.008-12-7-12zm0 23.2c-1.496 0-3.035-1.079-4.227-2.958a.44.44 0 0 0-.746 0C10.29 22.207 8.934 23.2 7.5 23.2 3.965 23.2 1.3 18.387 1.3 12S3.966.8 7.5.8c1.434 0 2.79.993 4.027 2.958.16.258.586.258.746 0C13.465 1.878 15.003.8 16.5.8 20.035.8 22.7 5.613 22.7 12s-2.665 11.2-6.2 11.2zm0 0"/>
    <path d="M16.5 1.602c-1.879 0-3.605 1.753-4.594 4.57-.976-2.89-2.57-4.57-4.406-4.57-3.027 0-5.398 4.566-5.398 10.398S4.472 22.398 7.5 22.398c1.836 0 3.43-1.68 4.406-4.57.989 2.817 2.715 4.57 4.594 4.57 3.027 0 5.398-4.566 5.398-10.398S19.528 1.602 16.5 1.602zm-5 10H9.46A2.006 2.006 0 0 0 7.5 10c-1.102 0-2 .898-2 2 0 1.102.898 2 2 2 .965 0 1.773-.688 1.96-1.602h2.04V16H9.46a2.01 2.01 0 0 0-1.96-1.602c-1.102 0-2 .899-2 2a2.001 2.001 0 0 0 3.96.403h1.923c-.824 2.972-2.29 4.8-3.883 4.8-2.492 0-4.602-4.398-4.602-9.601 0-5.203 2.11-9.602 4.602-9.602 1.594 0 3.059 1.829 3.883 4.801H9.46a2.001 2.001 0 0 0-3.96.402c-.001 1.102.897 2 1.999 2A2.01 2.01 0 0 0 9.46 8h2.04v3.602zM8.7 12c0 .66-.54 1.2-1.2 1.2-.66 0-1.2-.54-1.2-1.2 0-.66.54-1.2 1.2-1.2.66 0 1.2.54 1.2 1.2zm0 4.398c0 .665-.54 1.204-1.2 1.204a1.202 1.202 0 0 1 0-2.402c.66 0 1.2.538 1.2 1.198zm0-8.796c0 .66-.54 1.199-1.2 1.199a1.202 1.202 0 0 1 0-2.403c.66 0 1.2.54 1.2 1.204zm7.8 14c-1.656 0-3.262-1.91-4.078-4.801h1.918a2.001 2.001 0 0 0 3.96-.402c0-1.102-.898-2-2-2A2.01 2.01 0 0 0 14.34 16H12.3v-3.602h2.04A2.006 2.006 0 0 0 16.3 14c1.102 0 2-.898 2-2 0-1.102-.898-2-2-2-.964 0-1.773.688-1.96 1.602H12.3V8h2.04a2.01 2.01 0 0 0 1.96 1.602c1.102 0 2-.899 2-2a2.001 2.001 0 0 0-3.96-.403h-1.918c.816-2.89 2.422-4.8 4.078-4.8 2.492 0 4.602 4.398 4.602 9.601 0 5.203-2.11 9.602-4.602 9.602zm-1.398-5.204a1.2 1.2 0 0 1 2.398 0 1.2 1.2 0 0 1-2.398 0zm0-4.398a1.2 1.2 0 1 1 2.399 0 1.2 1.2 0 0 1-2.4 0zm0-4.398A1.2 1.2 0 0 1 16.3 6.398a1.202 1.202 0 0 1 0 2.402 1.2 1.2 0 0 1-1.2-1.198zm0 0"/>
</svg>
